Numix-GalliumOS/32/mimetypes/application-info.svg

<?xml version="1.0" encoding="UTF-8" standalone="no"?>
<svg
   xmlns:dc="http://purl.org/dc/elements/1.1/"
   xmlns:cc="http://creativecommons.org/ns#"
   xmlns:rdf="http://www.w3.org/1999/02/22-rdf-syntax-ns#"
   xmlns:svg="http://www.w3.org/2000/svg"
   xmlns="http://www.w3.org/2000/svg"
   xmlns:sodipodi="http://sodipodi.sourceforge.net/DTD/sodipodi-0.dtd"
   xmlns:inkscape="http://www.inkscape.org/namespaces/inkscape"
   width="32"
   height="32"
   viewBox="0 0 32 32"
   id="svg2"
   version="1.1"
   inkscape:version="0.48.5 r10040"
   sodipodi:docname="application-info.svg">
  <metadata
     id="metadata16">
    <rdf:RDF>
      <cc:Work
         rdf:about="">
        <dc:format>image/svg+xml</dc:format>
        <dc:type
           rdf:resource="http://purl.org/dc/dcmitype/StillImage" />
      </cc:Work>
    </rdf:RDF>
  </metadata>
  <defs
     id="defs14" />
  <sodipodi:namedview
     pagecolor="#ffffff"
     bordercolor="#666666"
     borderopacity="1"
     objecttolerance="10"
     gridtolerance="10"
     guidetolerance="10"
     inkscape:pageopacity="0"
     inkscape:pageshadow="2"
     inkscape:window-width="1280"
     inkscape:window-height="970"
     id="namedview12"
     showgrid="true"
     inkscape:zoom="5.2149125"
     inkscape:cx="0.83765767"
     inkscape:cy="24.270396"
     inkscape:window-x="0"
     inkscape:window-y="0"
     inkscape:window-maximized="1"
     inkscape:current-layer="svg2">
    <inkscape:grid
       type="xygrid"
       id="grid3004" />
  </sodipodi:namedview>
  <path
     style="fill:#4a80d6;fill-opacity:1"
     d="M 5.335888,2.975e-4 C 4.648414,3.125e-4 4,0.6767884 4,1.3940317 L 4,30.606268 C 4,31.282757 4.687474,32 5.335888,32 l 21.327332,0 c 0.648414,0 1.335888,-0.717243 1.335888,-1.393732 L 28,9.0000002 l -9,-9 z"
     id="path4-1"
     inkscape:connector-curvature="0"
     sodipodi:nodetypes="ssssssccs" />
  <path
     style="fill:#000000;fill-opacity:0.19599998"
     d="M 21,9.0000002 28,16 28,9.0000002 z"
     id="path6-4"
     inkscape:connector-curvature="0"
     sodipodi:nodetypes="cccc" />
  <path
     style="fill:#ffffff;fill-opacity:0.39200003"
     d="m 19.000306,2.975e-4 8.991594,8.9997027 -7.613262,0 c -0.672951,0 -1.378332,-0.7134896 -1.378332,-1.3864402 z"
     id="path8-6"
     inkscape:connector-curvature="0"
     sodipodi:nodetypes="ccssc" />
  <path
     style="fill:#ffffff"
     d="M 11.498901,12 C 10.668132,12 10,12.667887 10,13.498352 l 0,8.998901 C 10,23.327717 10.668132,24 11.498901,24 l 9.002198,0 C 21.331868,24 22,23.327717 22,22.497253 l 0,-8.998901 C 22,12.667887 21.331868,12 20.501099,12 z M 15,14 l 2,0 0,2 -2,0 z m -1,3 3,0 0,4 1,0 0,2 -4,0 0,-2 1,0 0,-2 -1,-0.0022 z"
     id="path10"
     inkscape:connector-curvature="0"
     sodipodi:nodetypes="ssssssssscccccccccccccccc" />
</svg>

<svg xmlns="http://www.w3.org/2000/svg" viewBox="0 0 32 32">
 <path d="m 5.336 0 c -0.687 0 -1.336 0.676 -1.336 1.394 l 0 29.21 c 0 0.676 0.687 1.394 1.336 1.394 l 21.327 0 c 0.648 0 1.336 -0.717 1.336 -1.394 l 0.001 -21.606 l -9 -9 z" style="fill:#4a80d6;fill-opacity:1"/>
 <path d="m 21 9 7 7 0 -7 z" style="fill:#000;fill-opacity:0.196"/>
 <path d="m 19 0 8.992 9 -7.613 0 c -0.673 0 -1.378 -0.713 -1.378 -1.386 z" style="fill:#fff;fill-opacity:0.392"/>
 <path d="m 11.499 12 c -0.831 0 -1.499 0.668 -1.499 1.498 l 0 8.999 c 0 0.83 0.668 1.503 1.499 1.503 l 9 0 c 0.831 0 1.499 -0.672 1.499 -1.503 l 0 -8.999 c 0 -0.83 -0.668 -1.498 -1.499 -1.498 z m 3.501 2 l 2 0 0 2 -2 0 z m -1 3 3 0 0 4 1 0 0 2 -4 0 0 -2 1 0 0 -2 -1 -0.002 z" style="fill:#fff"/>
</svg>
